X:1070
T: Pub at the Crossroads
S: B.Breathnach:"Ceol Rince na hEireann" IV/216 (gan ainm)
Z: B.Black
L: 1/8
M: 4/4
R: hornpipe
K: A
(3EFG|: A2 (3BAG ABcd|edcB ABcA|B2 BA Bfge|dcBA GBGE|
A2 (3BAG ABcd|edcB A2 a2|gbge (3fga f^d|1 e2 ef edcB :|2\
e2 ee e2 ||
ec|B2 BA Bfge|dcBA GBGE|e2 (3fe^d efgb|agfe dcBA|
fFFE F2 af|eEED E2 ed|(3cde cA (3Bcd BG|A2 AA A2 :|
